!!!COM:	L. van BEETHOVEN
!!!OTL:	String Quartet Op.18 No.5
**kern	**dynam
*I"Viola	*
*clefC3	*
*k[f#c#g#]	*
*A:	*
*M6/8	*
=1	=1
!LO:TX:a:B:t=Allegro	!
4r	.
8r	.
4c#	sf
8r	.
=2	=2
4r	.
8r	.
4c#	sf
8r	.
=3	=3
4r	.
8r	.
4c#	sf
8r	.
=4	=4
2.r	.
=5	=5
(2.d	p
=6	=6
[2.B)	.
=7	=7
(4.B	.
[4.c#)	.
=8	=8
4.c#	.
4.c#	.
=9	=9
(2.d	.
=10	=10
2.B)	.
=11	=11
4c#	.
8r	.
4r	.
8r	.
=12	=12
8r	.
8E	p
8E	.
4r	.
8r	.
=13	=13
8r	.
8C#	.
8C#	.
4r	.
8r	.
=14	=14
8r	.
8D	.
8D	.
8r	.
8E	.
8E	.
=15	=15
8r	.
8A	.
8A	.
4r	.
8r	.
=16	=16
8r	.
8E	.
8E	.
4r	.
8r	.
=17	=17
8r	.
!LO:TX:t=cresc.	!
8C#	<
8C#	.
8r	.
8G	.
8G	.
=18	=18
8r	.
8F#	.
8F#	.
8r	.
8F	.
8F	[
=19	=19
[2.E	p
=20	=20
[4.E	.
8EL	.
8A	.
8A	.
=21	=21
4G#	.
8r	.
!LO:TX:t=cresc	!
[4.E	<
=22	=22
8EL	.
8e	.
8e	.
(8eL	.
8A	.
8B)	.
=23	=23
4B	f
8r	.
4B	.
8r	.
=24	=24
4B	.
8r	.
8r	.
8r	.
8B	p
=25	=25
4g	.
8d#	.
4e	.
8B	.
=26	=26
(4c	sf
16d	.
16c	.
4B)	.
8r	.
=27	=27
2.r	.
=28	=28
2.r	.
=29	=29
[4.B	.
4B	.
8e	.
=30	=30
[4.e	.
4e	.
8r	.
=31	=31
8r	.
8r	.
8e	.
(8eL	.
8d)	.
8c	.
=32	=32
(4.c	.
8BL)	.
8r	.
8B	f
=33	=33
4g	.
8d#	.
4e	.
8B	.
=34	=34
(4c	sf
16d	.
16c	.
4B)	.
(16b	p
16a)	.
=35	=35
(4g	.
8f#	.
4e	.
8d#)	.
=36	=36
(4e	.
8A#	.
4B)	.
8r	.
=37	=37
[4.b	pp
4b	.
8b	.
=38	=38
[4.ee	.
4ee	.
8r	.
=39	=39
2.r	.
=40	=40
4r	.
8r	.
8r	.
8r	.
(8g#	pp
=41	=41
4a	.
8e#	.
4f#)	.
[8f#	.
=42	=42
(4f#	.
8e	.
4c#	.
8A)	.
=43	=43
4G#	.
8r	.
4r	.
8r	.
=44	=44
(4B	pp
8c#)	.
8dL	.
8c#	.
8B	.
=45	=45
4A	.
8G#	.
4F#	.
8r	.
=46	=46
(4c#	.
8d#)	.
8eL	.
8d#	.
8c#	.
=47	=47
4B	.
8A#	.
4G#	.
8r	.
=48	=48
4B	f
8B	.
8BL	.
8B	.
8B	.
=49	=49
(8BL	p
8G#)	.
8r	.
(8c#L	.
8e)	.
8r	.
=50	=50
(8EL	.
8G#)	.
8r	.
(8F#L	.
8A)	.
8r	.
=51	=51
4G#	f
8r	.
4r	.
8r	.
=52	=52
(4B	sf
8c#)	.
8dL	.
8c#	.
8B	.
=53	=53
4A	.
8G#	.
4F#	.
8r	.
=54	=54
(4c#	sf
8d#)	.
8eL	.
8d#	.
8c#	.
=55	=55
4B	.
8A#	.
4G#	.
8r	.
=56	=56
4f#	sf
8e	.
8d#L	.
8c#	.
8B	.
=57	=57
4f#	sf
8e	.
8d#L	.
8c#	.
8B	.
=58	=58
8d#L	sf
8d#	.
8e	.
8f#L	.
8g#	.
8a	.
=59	=59
4B	.
8r	.
4e	.
8r	.
=60	=60
4e	.
8r	.
4e	.
8r	.
=61	=61
[4.e	sf
8eL	.
8f#	.
8f#	.
=62	=62
4e	.
8r	.
4r	.
8r	.
=63	=63
[4.e	sf
8eL	.
8f#	.
8f#	.
=64	=64
4e	.
8r	.
4r	.
8r	.
=65	=65
[4.e	sf
8eL	.
8f#	.
8f#	.
=66	=66
4e	.
8r	.
(4e	p
8e)	.
=67	=67
!LO:TX:t=cresc.	!
(4e	<
8e)	.
(4e	.
8e)	[
=68	=68
[4.e	sfp
8eL	.
8e	.
8e	.
=69	=69
8eL	.
8c#	.
8c#	.
8BL	.
8B	.
8B	.
=70	=70
4B	.
8r	.
!LO:TX:t=cresc.	!
(4E	<
8E)	.
=71	=71
(4E	.
8E)	.
(4E	.
8E)	[
=72	=72
[4.g#	f
8g#	.
8g#	.
8g#	.
=73	=73
8c#L	.
8c#	.
8c#	.
8BL	.
8B	.
8B	.
=74	=74
8BJ	p
(8EL	.
8G#)	.
8r	.
(8F#	.
8A)	.
=75	=75
8r	.
(8G#	.
8B)	.
8r	.
(8A	.
8B)	.
=76	=76
8r	.
(8E	.
8G#)	.
8r	.
(8F#	.
8A)	.
=77	=77
8r	.
(8G#	.
8B)	.
8r	.
(8A	.
8B)	.
=78	=78
8r	.
(8G#	.
8B)	.
8r	.
(8G#	.
8B)	.
=79	=79
4G#	.
8r	.
4r	.
8r	.
=80:|!	=80:|!
4G#	.
8r	.
4r	.
8r	.
=81	=81
4r	.
8r	.
!LO:TX:t=cresc.	!
(4C#	<
8C#)	.
=82!|:	=82!|:
(4C#	.
8C#)	.
(4C#	.
8C#)	[
=83	=83
[4.G#	f
8G#L	.
8A	.
8B	.
=84	=84
4c#	.
8r	.
4r	.
8r	.
=85	=85
[4.d	sf
8dL	.
8c#	.
8B	.
=86	=86
4A	.
8r	.
4r	.
8r	.
=87	=87
[4.b-	sf
8b-L	.
8a	.
8g	.
=88	=88
4f#	.
8r	.
4r	.
8r	.
=89	=89
[4.c#	pp
8c#L	.
8d	.
8e	.
=90	=90
(8f#L	.
8d)	.
8r	.
(8BL	.
8d)	.
8r	.
=91	=91
(8DL	.
8F#)	.
8r	.
(8EL	.
8G)	.
8r	.
=92	=92
[4.D	.
(8DL	.
8A	.
8F#)	.
=93	=93
[4.D	.
(8DL	.
8c	.
8A)	.
=94	=94
[4.D	.
(8DL	.
8B	.
8G)	.
=95	=95
[4.D	.
(8DL	.
8A	.
8G)	.
=96	=96
(8DL	.
8A	.
8G)	.
(8DL	.
8A	.
8F#)	.
=97	=97
[4.D	.
(8DL	.
8c	.
8A)	.
=98	=98
[4.D	.
(8DL	.
8B	.
8G)	.
=99	=99
(8DL	.
8A	.
8G)	.
(8DL	.
8A	.
8G)	.
=100	=100
4F#	.
8r	.
(16dLL	p
16e	.
16f#	.
16g	.
16a	.
16f#)	.
=101	=101
4g	.
8r	.
(16ALL	.
16B	.
16c#	.
16d	.
16e	.
16c#)	.
=102	=102
4d	.
8r	.
(16DLL	f
16E	.
16F#	.
16G	.
16A	.
16F#)	.
=103	=103
4G	.
8r	.
4A	.
8r	.
=104	=104
4D	.
8r	.
4r	.
8r	.
=105	=105
2.r	.
=106	=106
2.r	.
=107	=107
(16ALL	p
16B	.
16c#	.
16d	.
16e)	.
16c#	.
4g	.
8r	.
=108	=108
(16fLL	.
16a	.
16f	.
16d	.
16A	.
16F)	.
4.D	.
=109	=109
2.r	.
=110	=110
2.r	.
=111	=111
2.r	.
=112	=112
8r	.
!LO:TX:t=cresc.	!
8d	<
8d	.
8r	.
8d	.
8d	.
=113	=113
8r	.
8d	.
8d	.
8r	.
8d	.
8d	.
=114	=114
4d	[
8r	.
4r	.
8r	.
=115	=115
(16fLL	sf
16e)	.
16d	.
16c	.
16B	.
16d	.
4G#	.
8r	.
=116	=116
8r	.
!LO:TX:t=cresc.	!
8A	<
8A	.
8r	.
8A	.
8A	.
=117	=117
8r	.
8A	.
8A	.
8r	.
8A	.
8A	[
=118	=118
[2.A	f
=119	=119
8AL	.
8f#	.
8f#	.
8f#L	.
8f#	.
8f#	.
=120	=120
4g#	.
8r	.
4r	.
8r	.
=121	=121
2.r	.
=122	=122
4r	.
8r	.
[4.E	p
=123	=123
[4.E	.
(8EL	.
8A	.
8c)	.
=124	=124
4e	.
8r	.
4r	.
8r	.
=125	=125
2.r	.
=126	=126
4r	.
8r	.
[4.E	.
=127	=127
[4.E	.
(8EL	.
8A	.
8c)	.
=128	=128
4e	.
8r	.
4r	.
8r	.
=129	=129
2.r	.
=130	=130
[2.F#	pp
=131	=131
(4.F#	.
[4.B)	.
=132	=132
4.B	.
[4.E	.
=133	=133
!LO:TX:t=cresc.	!
4.E	<
[4.A	.
=134	=134
4.A	.
4.A	.
=135	=135
2.A	f
=136	=136
[4.B	sf
8BL	.
8d	.
8d	.
=137	=137
4c#	.
8r	.
4c#	sf
8r	.
=138	=138
4r	.
8r	.
4c#	sf
8r	.
=139	=139
4r	.
8r	.
4c#	sf
8r	.
=140	=140
2.r	.
=141	=141
(2.d	p
=142	=142
[2.B)	.
=143	=143
(4.B	.
[4.c#)	.
=144	=144
4.c#	.
4.c#	.
=145	=145
(2.d	.
=146	=146
2.B)	.
=147	=147
4c#	.
8r	.
4r	.
8r	.
=148	=148
8r	.
8E	p
8E	.
4r	.
8r	.
=149	=149
8r	.
8C#	.
8C#	.
4r	.
8r	.
=150	=150
2.r	.
=151	=151
2.r	.
=152	=152
8r	.
!LO:TX:t=cresc.	!
8F#	<
8F#	.
8r	.
8G	.
8G	.
=153	=153
8r	.
8G#	.
8G#	.
8r	.
8A	.
8A	.
=154	=154
8r	.
8B-	.
8B-	.
8r	.
8B	.
8B	[
=155	=155
8r	.
8B	f
8B	.
8r	.
8c	.
8c	.
=156	=156
8r	.
8B	p
8B	.
8r	.
8c	.
8c	.
=157	=157
8r	.
8c#	f
8c#	.
8r	.
8d	.
8d	.
=158	=158
8r	.
8A	p
8A	.
8r	.
8A	.
8A	.
=159	=159
8r	.
8A	.
8A	.
8r	.
8A	.
8A	.
=160	=160
8G#L	.
8E	.
8E	.
[4.E	.
=161	=161
[4.E	.
(8EL	.
8A)	.
8A	.
=162	=162
4G#	.
8r	.
[4.E	.
=163	=163
!LO:TX:t=cresc.	!
[4.E	<
(8EL	.
8A	.
8B)	[
=164	=164
4B	f
8r	.
4B	.
8r	.
=165	=165
4B	.
8r	.
8r	.
8r	.
8E	p
=166	=166
4c	.
8G#	.
4A	.
8E	.
=167	=167
(4F	sf
16G	.
16F)	.
4E	.
8r	.
=168	=168
2.r	.
=169	=169
2.r	.
=170	=170
[4.e	.
4e	.
(8e	.
=171	=171
[4.a)	.
4a	.
8r	.
=172	=172
8r	.
8r	.
8a	.
(8aL	.
8g)	.
8f	.
=173	=173
(4.f	.
4e)	.
8E	f
=174	=174
4c	.
8G#	.
4A	.
8E	.
=175	=175
(4F	sf
16G	.
16F)	.
4E	.
(16ee	p
16dd)	.
=176	=176
(4cc	.
8b	.
4a	.
8g#)	.
=177	=177
(4a	.
8d#	.
4e)	.
8r	.
=178	=178
[4.e	.
4e	.
(8g	.
=179	=179
4f#	.
8g	.
4a)	.
8r	.
=180	=180
2.r	.
=181	=181
4r	.
8r	.
8r	.
8r	.
(8cc#	.
=182	=182
4dd	.
8a#	.
4b)	.
[8b	.
=183	=183
(4b	.
8a	.
4f#	.
8d)	.
=184	=184
4c#	.
8r	.
4r	.
8r	.
=185	=185
(4e	pp
8f#)	.
8g#L	.
8f#	.
8e	.
=186	=186
4d	.
8c#	.
4B	.
8r	.
=187	=187
(4f#	.
8g#)	.
8aL	.
8g#	.
8f#	.
=188	=188
(4e	.
8d#)	.
4c#	.
8r	.
=189	=189
8EL	f
8e	.
8e	.
8eL	.
8e	.
8e	.
=190	=190
(8eL	p
8c#)	.
8r	.
(8F#L	.
8A)	.
8r	.
=191	=191
(8AL	.
8c#)	.
8r	.
(8BL	.
8d)	.
8r	.
=192	=192
4c#	f
8r	.
4r	.
8r	.
=193	=193
(4e	sf
8f#)	.
8gL	.
8f#	.
8e	.
=194	=194
4d	.
8c#	.
4B	.
8r	.
=195	=195
(4f#	sf
8g#)	.
8aL	.
8g#	.
8f#	.
=196	=196
4e	.
8d#	.
4.c#	.
=197	=197
!LO:TX:t=sf	!
4G#	.
8A	.
8BL	.
8c#	.
8d	.
=198	=198
4G#	sf
8A	.
8BL	.
8c#	.
8d	.
=199	=199
8G#L	sf
8e	.
8e	.
8eL	.
8e	.
8e	.
=200	=200
4e	.
8r	.
4A	.
8r	.
=201	=201
4A	.
8r	.
4A	.
8r	.
=202	=202
[4.A	sf
8AL	.
8B	.
8B	.
=203	=203
4A	.
8r	.
4r	.
8r	.
=204	=204
[4.A	sf
8AL	.
8B	.
8B	.
=205	=205
4A	.
8r	.
4r	.
8r	.
=206	=206
[4.A	sf
8AL	.
8B	.
8B	.
=207	=207
4A	.
8r	.
(4A	p
8A)	.
=208	=208
!LO:TX:t=cresc.	!
(4A	<
8A)	.
(4A	.
8A)	.
=209	=209
[4.g	sfp
8gL	.
8f#	.
8e	.
=210	=210
8dL	.
8e	.
8f#	.
8eL	.
8e	.
8e	.
=211	=211
4e	.
8r	.
!LO:TX:t=p cresc.	!
!LO:TX:t=p cresc.	!
(4A	<
8A)	.
=212	=212
(4A	.
8A)	.
(4A	.
8A)	.
=213	=213
[4.c#	f
8c#L	.
8c#	.
8c#	.
=214	=214
8f#L	.
8f#	.
8f#	.
8eL	.
8e	.
8e	.
=215	=215
8eJ	p
(8AL	.
8c#)	.
8r	.
(8B	.
8d)	.
=216	=216
8r	.
(8c#	.
8e)	.
8r	.
(8d	.
8e)	.
=217	=217
8r	.
(8A	.
8c#)	.
8r	.
(8B	.
8d)	.
=218	=218
8r	.
(8c#	.
8e)	.
8r	.
(8d	.
8e)	.
=219	=219
8r	.
(8c#	.
8e)	.
8r	.
(8c#	.
8e)	.
=220	=220
4c#	.
8r	.
4r	.
8r	.
=221	=221
4r	.
8r	.
!LO:TX:t=cresc.	!
(4C#	.
8C#)	.
=222:|!	=222:|!
4c#	f
8r	.
4r	.
8r	.
=223	=223
8c#L	p
8d	.
8e	.
4r	.
8r	.
=224	=224
8a	.
8b	.
8cc#	.
4r	.
8r	.
=225	=225
4r	.
8r	.
!LO:TX:t=cresc.	!
8eL	<
8e	.
8e	.
=226	=226
8aL	.
8a	.
8a	.
4a	[
8r	.
=227	=227
4r	.
8r	.
4e	f
8r	.
=228	=228
4A	.
8r	.
4r	.
8r	.
=229	=229
*M3/4	*
!LO:TX:a:B:t=Menuetto	!
4r	.
=230	=230
2.r	.
=231	=231
2.r	.
=232	=232
2.r	.
=233	=233
2.r	.
=234	=234
2.r	.
=235	=235
2.r	.
=236	=236
2.r	.
=237	=237
2.r	.
=238	=238
2.r	.
=239	=239
2.r	.
=240	=240
2.r	.
=241	=241
4r	.
4r	.
4c#	p
=242	=242
2.e	.
=243	=243
2.B	.
=244	=244
(8dL	.
8c#)	.
(8B	.
8A)	.
(8G#	.
8A)	.
=245	=245
(4c#	.
4B)	.
4c#	.
=246	=246
2.e	.
=247	=247
2c#	.
4c#	.
=248	=248
2.a	.
=249	=249
2d#	.
4d#	.
=250	=250
2.b	.
=251	=251
(8aL	.
8g#)	.
(8f#	.
8e)	.
(8d#	.
8e)	.
=252	=252
(4f#	.
4a)	.
4d#	.
=253	=253
4e	.
4r	.
4r	.
=254!|:	=254!|:
(2.G#	p
=255	=255
2.A	.
=256	=256
4B)	.
4r	.
4r	.
=257	=257
2.r	.
=258	=258
(2.g#	p
=259	=259
2.a)	.
=260	=260
4b	.
4r	.
4r	.
=261	=261
2.r	.
=262	=262
4r	.
(4g#	p
4b)	.
=263	=263
4r	.
(4c#	.
4a)	.
=264	=264
4r	.
(4c#	.
4e)	.
=265	=265
4r	.
(4c#	.
4e)	.
=266	=266
4r	.
(4c#	.
4e)	.
=267	=267
4r	.
4F#	.
4F#	.
=268	=268
!LO:TX:t=cresc.	!
(2.E	<
=269	=269
2.G#)	.
=270	=270
(4.A	.
8G#	.
8A	.
8G#)	.
=271	=271
4F#	.
4F#	.
4F#	.
=272	=272
2.E	.
=273	=273
4E	ff
4E	.
4E	.
=274	=274
2.r	.
=275	=275
2.r	.
=276	=276
2.r	.
=277	=277
2.r	.
=278	=278
2.r	.
=279	=279
2.r	.
=280	=280
2.r	.
=281	=281
2.r	.
=282	=282
2.r	.
=283	=283
2.r	.
=284	=284
2.r	.
=285	=285
2.r	.
=286	=286
4r	.
4r	.
4A	p
=287	=287
2.a	.
=288	=288
2.e	.
=289	=289
(8gL	.
8f#)	.
(8e	.
8d)	.
(8c#	.
8d)	.
=290	=290
(8dL	.
8c#)	.
(8B	.
8A)	.
(8B	.
8c#)	.
=291	=291
(4d	.
4a)	.
4r	.
=292	=292
(4A	.
4e)	.
4r	.
=293	=293
4A	.
4f#	.
4r	.
=294	=294
(4A	.
4g)	.
4r	.
=295	=295
!LO:TX:t=cresc.	!
(4f#	<
4d)	.
4r	.
=296	=296
(4A	.
4d)	.
4r	.
=297	=297
(4B	.
4d)	.
4r	.
=298	=298
(4B	.
4e)	.
4r	.
=299	=299
(4c#	.
4A)	.
4r	.
=300	=300
(4c#	.
4f#)	.
[4f#	.
=301	=301
(4f#	f
4d)	.
4B	.
=302	=302
4A	.
4r	.
4r	.
=303	=303
2.e	p
=304	=304
2.e	.
=305	=305
4e	.
4e	.
4e	.
=306	=306
4e	.
4r	.
4r	.
=307	=307
!LO:TX:t=cresc.	!
2.G#	<
=308	=308
2.A	.
=309	=309
(4A	sfp
4a)	.
4g#	.
=310	=310
4a	.
4r	.
4r	.
=311:|!	=311:|!
4a	.
4r	.
=!|:	=!|:
!LO:TX:a:B:t=Trio	!
4E	.
=312	=312
(4C#	.
4E	.
4A)	sf
=313	=313
(4A	.
4G#	.
4A)	sf
=314	=314
4B	.
(qqc#	.
8BL	.
8A#	.
8B	.
8c#)	.
=315	=315
(4B	.
4A)	.
([4A	sf
=316	=316
4A	.
4G#)	.
([4G	sf
=317	=317
4G	.
4F#)	.
4G#	sf
=318	=318
(4A	.
4F#	.
4B)	.
=319	=319
4E	.
4r	.
=:|!|:	=:|!|:
4e	p
=320	=320
(4ee	.
4b	.
4cc#	.
=321	=321
4dd	.
4a	.
4b	.
=322	=322
4cc#	.
4b	.
4a	.
=323	=323
4g#)	.
4E	.
4E	.
=324	=324
!LO:TX:t=cresc	!
[2.E	<
=325	=325
[2.E	.
=326	=326
4E	.
4e	.
[4e	.
=327	=327
(4e	[
4d#	.
4d)	p
=328	=328
2E 2c#	.
4E 4c#	sf
=329	=329
2E 2d	.
4E 4d	sf
=330	=330
2E 2d	.
4E 4d	sf
=331	=331
2E 2c#	.
[4A	sf
=332	=332
(4A	.
4G#)	.
[4G	sf
=333	=333
(4G	.
4F#)	.
[4B	sf
=334	=334
(4B	.
4A	.
4d)	.
=335	=335
!LO:TX:a:B:t=Menuetto D.C.	!
4c#	.
4r	.
=336	=336
*k[f#c#]	*
*D:	*
*M2/4	*
!LO:TX:a:B:t=Andante cantabile	!
8r	.
=337	=337
[2A	p
=338	=338
(4.A	.
16G	.
16F#)	.
=339	=339
(16GLL	.
16E)	.
[4.A	.
=340	=340
(4.A	.
16B	.
16c#)	.
=341	=341
(8dL	.
[4.A)	.
=342	=342
(4A	.
16ALL)	.
16B	.
16c#	.
16d)	.
=343	=343
[2e	.
=344	=344
(8eL	.
8G#	.
8AL)	.
=:|!|:	=:|!|:
(8AL	.
=345	=345
8F#L	.
8G	.
16BLL	.
16A	.
16G	.
16A)	.
=346	=346
(8BL	.
8d	.
8A)	.
8r	.
=347	=347
!LO:TX:t=cresc.	!
4.d	<
8d	.
=348	=348
(8dL	.
8g	.
8f#)	[
8r	.
=349	=349
4a	p
(8gL	.
8f#)	.
=350	=350
(8eL	.
8d)	.
(8c#L	.
8B	.
=351	=351
8AL	.
8G	.
8F#	.
8E)	.
=352	=352
(4E	.
8DL)	.
=:|!|:	=:|!|:
!LO:TX:a:B:t=Var. 1.	!
8r	.
=353	=353
2r	.
=354	=354
4r	.
8r	.
16.A	p
32A	.
=355	=355
4g	.
qqa	.
qqg	.
qqf#	.
qqg	.
16aLL	.
16f#	.
16g	.
16e	.
=356	=356
!LO:TX:t=sempre stacc.	!
16f#LL	.
16g	.
16a	.
16b	.
16aLL	.
16g	.
16f#	.
16e	.
=357	=357
16f#LL	.
16a	.
16f#	.
16a	.
16eLL	.
16a	.
16f#	.
16f#	.
=358	=358
!LO:TX:t=cresc.	!
16eLL	<
16ee	.
16B	.
16b	.
16c#LL	.
16cc#	.
16A	.
16a	.
=359	=359
16aLL	[
16a	sf
16r	.
16a	sf
16r	.
16b	sf
16r	.
16E	sf
=360	=360
16ALL	p
16e	.
16A	.
16e	.
8aL	.
=:|!|:	=:|!|:
8r	.
=361	=361
2r	.
=362	=362
4r	.
8r	.
16.d	p
32d	.
=363	=363
8.ddL	.
(48a	.
48b	.
48cc#)	.
16ddLL	.
16cc#	.
16dd	.
16cc	.
=364	=364
!LO:TX:t=sempre stacc.	!
16ddLL	.
16b	.
16dd	.
16b-	.
16ddLL	.
16a	.
16dd	.
16g	.
=365	=365
16ddLL	.
16f#	.
16a	.
16f#	.
16eLL	.
16a	.
16f#	.
16a	.
=366	=366
!LO:TX:t=cresc.	!
16gLL	<
16a	.
16f#	.
16a	.
16eLL	.
16a	.
16d	.
16a	.
=367	=367
16c#LL	[
16c#	sf
16r	.
16c#	sf
16r	.
16e	sf
16r	.
16A	sf
=368	=368
16DLL	p
16A	.
16D	.
16A	.
8DL	.
=:|!|:	=:|!|:
!LO:TX:a:B:t=Var. 2.	!
8r	.
=369	=369
16A	pp
16r	.
16A	.
16r	.
4r	.
=370	=370
8AL	.
8A	.
4r	.
=371	=371
8AL	.
8A	.
4r	.
=372	=372
8AL	.
8A	.
4r	.
=373	=373
8A	.
8r	.
8AL	.
8A	.
=374	=374
8AL	.
8r	.
8G#L	.
8A	.
=375	=375
8BL	.
8r	.
8BL	.
8r	.
=376	=376
8r	.
8G#L	.
8A	.
=:|!|:	=:|!|:
8r	.
=377	=377
8dL	.
8d	.
4r	.
=378	=378
24GLL	<
24B	.
24d	.
24gLL	.
24b	.
24dd	[
24ddLL	>
24dd	.
24dd	.
24ddLL	.
24dd	.
24dd	.
=379	=379
8dL	]
8d	.
4r	.
=380	=380
(8.dL	<
16B	[
8G#L)	>
16A	.
16r	]
=381	=381
8AL	pp
8A	.
4r	.
=382	=382
8AL	.
8A	.
4r	.
=383	=383
8eL	.
8r	.
8eL	.
8r	.
=384	=384
8r	.
(8c#	.
8dL)	.
=:|!	=:|!
!LO:TX:a:B:t=Var. 3.	!
8AL	p
=385!|:	=385!|:
(4f#	.
8eL	.
8d	.
=386	=386
8c#L)	.
8r	.
4r	.
=387	=387
2r	.
=388	=388
2r	.
=389	=389
[4D	p
(16DLL	.
16E	.
16F#	.
16G)	.
=390	=390
!LO:TX:t=cresc.	!
[4A	<
(16ALL	.
16B	.
16c#	.
16d)	.
=391	=391
[2e	.
=392	=392
(8eL	[
8A)	p
8r	.
8A	.
=393:|!|:	=393:|!|:
[4d	.
(16dLL	.
16A	.
16d	.
16c)	.
=394	=394
8BL	.
8G	.
8d	.
8r	.
=395	=395
2r	.
=396	=396
2r	.
=397	=397
2r	.
=398	=398
!LO:TX:t=cresc	!
[4A	<
(16ALL	.
16B	.
16c#	.
16d	.
=399	=399
16eLL	.
16f#	.
[8g)	.
8gL	.
[8A	sf
=400	=400
(4A	[
8DL)	p
8r	.
=401:|!	=401:|!
(4A	.
8DL)	p
=!|:	=!|:
!LO:TX:a:B:t=Var. 4.	!
8r	.
=402	=402
!LO:TX:t=sempre pp	!
(4d	.
8gL	.
8f	.
=403	=403
8eL	.
8d	.
[4c#)	.
=404	=404
8c#L	.
(8f#	.
8e#	.
8e	.
=405	=405
8dL	.
8c#	.
4B)	.
=406	=406
(4.d	.
8B	.
=407	=407
8AL	.
8G#	.
4F#)	.
=408	=408
8C#L	.
4c#	.
[8c#	.
=409	=409
4.c#	.
=:|!|:	=:|!|:
8r	.
=410	=410
*^	*
(2c	[2D	.
=411	=411	=411
8BL	2D	.
8d	.	.
4A)	.	.
*v	*v	*
=412	=412
(4F#	.
8EL	.
8D	.
=413	=413
8GL	.
8B	.
4d)	.
=414	=414
!LO:TX:t=cresc.	!
(4.c#	<
[8B)	.
=415	=415
(8BL	.
8c#	.
8d	.
[8d#)	.
=416	=416
(8d#L	pp
4e)	.
8e	.
=417	=417
(4e	.
8dL)	.
=:|!	=:|!
!LO:TX:t=.	!
!LO:TX:a:B:t=Var. 5.	!
8AL	f
=418!|:	=418!|:
(8.f#L	.
32g	.
32f#	.
16eLL)	.
(32f#	.
32e	.
16dLL)	.
(32e	.
32d	.
=419	=419
16c#LL)	.
(32d	.
32c#	.
16BLL)	.
(32c#	.
32B	.
4A)	.
=420	=420
(8.AL	.
32G#	.
32A	.
16BLL)	.
(32A	.
32B)	.
16c#LL	.
(32B	.
32c#)	.
=421	=421
16dLL	.
(32c#	.
32d)	.
16eLL	.
(32d	.
32e	.
16f#LL)	.
(32A	.
32B)	.
16c#LL	.
(32d	.
32e	.
=422	=422
8.f#L	.
32g	.
32f#)	.
16eLL	.
(32f#	.
32e	.
16dLL)	.
(32e	.
32d	.
=423	=423
16cLL)	.
(32d	.
32c)	.
16BLL	.
(32c	.
32B	.
[4A)	.
=424	=424
8AL	.
16.G#	.
32F#	.
8G#L	.
8B	.
=425	=425
(qqA#	.
qqB)	.
qqc#	.
4B	.
8AJ)	.
8AJ	.
=426:|!	=426:|!
(qqA#	.
qqB)	.
qqc#	.
4B	.
8AJ)	.
8AJ	.
=427!|:	=427!|:
(8.dL	.
32c#	.
32d	.
16eLL)	.
(32d	.
32e)	.
16f#LL	.
(32e	.
32f#	.
=428	=428
16gLL)	.
(32g	.
32a	.
16bLL)	.
(32b	.
32cc#)	.
8ddL	.
8r	.
=429	=429
[2DT	.
=430	=430
[4D	.
16DLL	.
32A	.
32B	.
16c#LL	.
(32d	.
32e	.
=431	=431
8.f#L	.
32g	.
32f#	.
16eLL)	.
(32f#	.
32e	.
16dLL)	.
(32e	.
32d	.
=432	=432
16c#LL)	.
(32d	.
32c#	.
16ALL)	.
(32c#	.
32B	.
4A)	.
=433	=433
(8.AL	.
32G#	.
32A	.
16BLL)	.
(32A	.
32B	.
16c#LL)	.
(32B	.
32c#	.
=434	=434
32gLLL	.
32f#	.
32e	.
32d	.
32c#	.
32B	.
32c#	.
32A	.
8dJ)	.
8AJ	.
=435:|!	=435:|!
8dL	.
8r	.
4r	.
=436	=436
2r	.
=437	=437
16r	.
16F	pp
16G	.
16A	.
16B-LL	.
16c	.
8d	.
=438	=438
16r	.
16e-	.
16c	.
16B-	.
16ALL	.
16G	.
8F	.
=439	=439
16r	.
16F	.
16G	.
16A	.
16B-LL	.
16c	.
16d	.
16e	.
=440	=440
!LO:TX:t=cresc.	!
8fL	<
8f	.
[4f	.
=441	=441
16fLL	p
16f#	.
16e-	.
16B	.
[4c	.
=442	=442
16cLL	.
16e-	.
16d	.
16A	.
[4B-	.
=443	=443
!LO:TX:t=cresc.	!
8B-L	<
(8D	.
8d)	.
8d	.
=444	=444
8eL	.
16r	.
(16A	.
16BLL	.
16A	.
16c#	.
16A)	.
=445	=445
16dLL	pp
16d	.
16d	.
16d	.
16dLL	.
16d	.
16d	.
16d	.
=446	=446
16eLL	.
16e	.
16e	.
16e	.
16eLL	.
16e	.
16e	.
16e	.
=447	=447
16dLL	.
16d	.
16d	.
16d	.
16dLL	.
16d	.
16d	.
16d	.
=448	=448
16c#LL	.
16c#	.
16c#	.
16c#	.
16c#LL	.
16c#	.
16c#	.
16c#	.
=449	=449
16ALL	.
16f#	.
16f#	.
16f#	.
16ALL	.
16f#	.
16f#	.
16f#	.
=450	=450
16ALL	.
16e	.
16A	.
16g	.
16ALL	.
16g	.
16A	.
16g	.
=451	=451
16ALL	.
16f#	.
16f#	.
16f#	.
16ALL	.
16f#	.
16f#	.
16f#	.
=452	=452
!LO:TX:t=cresc.	!
16ALL	<
16e	.
16e	.
16e	.
16eLL	.
16e	.
16e	.
16e	.
=453	=453
16d#LL	p
16d#	.
16e	.
16f#	.
[4e	.
=454	=454
16eLL	.
16c#	.
16d	.
16e	.
4d	.
=455	=455
4B	.
(8AL	.
8G)	.
=456	=456
(8F#L	.
8E)	.
4D	.
=457	=457
4B	.
(8AL	.
8G)	.
=458	=458
!LO:TX:t=cresc.	!
(8F#L	<
8E)	.
4D	.
=459	=459
[4E	p
16ELL	.
16F#	.
16G#	.
16A	.
=460	=460
[4D	.
16DLL	.
16E	.
16F#	.
16G	.
=461	=461
16r	.
16d#	.
16e	.
16f#	.
[4e	.
=462	=462
16eLL	.
16c#	.
16d	.
16e	.
4d	.
=463	=463
!LO:TX:t=cresc.	!
16d#LL	<
16a	.
16g	.
16d#	.
[4e	.
=464	=464
16eLL	.
16g	.
16f#	.
16c#	.
[4d	.
=465	=465
16dLL	.
16c#	.
16B	sf
16A	.
16c#LL	.
16B	.
16A	sf
16G	.
=466	=466
16BLL	.
16A	.
16G	sf
16F#	.
16ALL	.
16G	.
16F#	sf
16E	[
=467	=467
4E	f
4D	f
=468	=468
4B	f
4G	f
=469	=469
!LO:TX:a:B:t=Poco Adagio	!
2r	[
=470	=470
2r	.
=471	=471
2r	.
=472	=472
2r	.
=473	=473
(4a	pp
8gL	.
8f#	.
=474	=474
8eL	.
8d	.
!LO:TX:t=cresc.	!
[4c#)	.
=475	=475
4c#	.
[4E	<
=476	=476
8EL	>
(8G	.
8GL	]
8G)	.
=477	=477
8F#L	.
16.r	.
32F#	.
8F#L	.
16.r	.
32A	pp
=478	=478
2A	.
=479	=479
*k[f#c#g#]	*
*A:	*
*M2/2	*
!LO:TX:a:B:t=q =165	!
!LO:TX:a:B:t=Allegro	!
8eL	p
8f#	.
8e	.
=480	=480
[1c#	.
=481	=481
2c#	.
4e	.
4c#	.
=482	=482
4.B	.
8d	.
4.A	.
8c#	.
=483	=483
4.B	.
8d	.
4.A	.
8c#	.
=484	=484
4B	.
4B	.
4B	.
4B	.
=485	=485
[2B	.
8BL	.
8r	.
4r	.
=486	=486
2r	.
8r	.
8B	.
8A#	.
8B	.
=487	=487
2E	.
4G#	.
4B	.
=488	=488
4.A	.
8E	.
4.B	.
8E	.
=489	=489
4.A	.
8E	.
4.G#	.
8E	.
=490	=490
4.A	.
8E	.
4.B	.
8E	.
=491	=491
8EJ	.
8e	.
8f#	.
8e	.
2ee	.
=492	=492
1r	.
=493	=493
1r	.
=494	=494
1r	.
=495	=495
(2.C#	.
4E	.
=496	=496
4A	.
4G#	.
4B	.
4A)	.
=497	=497
(2.E	.
4A	.
=498	=498
4B	.
4A#	.
4c#	.
4B)	.
=499	=499
4A	.
4r	.
8r	.
8a	.
8b	.
8a	.
=500	=500
4g#	.
4r	.
2r	.
=501	=501
2r	.
8r	.
8f#	.
8g#	.
8f#	.
=502	=502
4e	.
4r	.
2r	.
=503	=503
2r	.
8r	.
8d#	.
8e	.
8d#	.
=504	=504
4c#	.
4r	.
2r	.
=505	=505
1r	.
=506	=506
1r	.
=507	=507
4B	.
(2B	.
8c#	.
8d#)	.
=508	=508
4e	.
4f#	.
4g	.
4e	.
=509	=509
4b	.
4r	.
2r	.
=510	=510
1r	.
=511	=511
4r	.
!LO:TX:t=cresc.	!
(2B	<
8c#	.
8d#)	.
=512	=512
4e	.
4f#	.
4g	.
4e	.
=513	=513
4b	f
4e	.
4b	.
4e	.
=514	=514
4b	.
4r	.
2r	.
=515	=515
(1B	pp
=516	=516
1G	.
=517	=517
1c	.
=518	=518
1F)	.
=519	=519
!LO:TX:t=cresc.	!
(2B-	<
[2A)	.
=520	=520
(2A	.
2B)	.
=521	=521
(2A	p
2F#)	.
=522	=522
4F#	.
4r	.
2r	.
=523	=523
(4ee	p
4dd#	.
4cc#	.
4b	.
=524	=524
4a	.
4g#	.
4f#	.
4e)	.
=525	=525
(4f#	.
4e	.
4d#	.
4c#	.
=526	=526
4B	.
4A	.
4G#	.
4F#)	.
=527	=527
4E	.
!LO:TX:t=cresc.	!
(2c#	<
4c)	.
=528	=528
2.B	.
4B	.
=529	=529
4A	p
(4a	.
4g#	.
4f#)	.
=530	=530
4e	.
4r	.
(4G#	.
4F#	.
=531	=531
4E	.
4D#)	.
(4A	.
4G#	.
=532	=532
4F#	.
4E)	.
(4G#	.
4F#	.
=533	=533
4E	.
4D#)	.
(4A	.
4G#	.
=534	=534
4F#	.
4E)	.
(4B	.
4A	.
=535	=535
4G#	.
4F#)	.
!LO:TX:t=cresc.	!
(4d	<
4c#	.
=536	=536
4B	.
4A	.
4e)	.
4e	.
=537	=537
(4d#	.
4e	.
4B)	.
4B	.
=538	=538
1r	[
=539	=539
2r	.
4B	p
4B	sf
=540	=540
[1B	sf
=541	=541
4B	.
4r	.
2r	.
=542	=542
4e	.
4d#	sf
4e	.
4e	sf
=543	=543
4e	.
4e	sf
4B	.
4B	sf
=544	=544
4B#	f
4r	.
2r	.
=545	=545
1r	.
=546	=546
(4a	pp
4f#	.
4e	.
4g#	.
=547	=547
4g	.
4e	.
4d	.
4f#	.
=548	=548
4f	.
4d	.
4c#	.
[4e	.
=549	=549
4e	.
4B	.
4d#	.
4B)	.
=550	=550
4B	p
4r	.
2r	.
=551	=551
4r	.
4B	.
4B	.
4B	.
=552	=552
4A	.
4r	.
2r	.
=553	=553
4r	.
4f#	.
4f#	.
4f#	.
=554	=554
4e	.
4r	.
2r	.
=555	=555
4r	.
4B	.
4B	.
4B	.
=556	=556
4A	.
4r	.
2r	.
=557	=557
4r	.
4F#	.
4F#	.
4F#	.
=558	=558
8EL	.
8G#	.
8B	.
8e	.
(8g#L	.
8e)	.
8g#	.
8e	.
=559	=559
[1b	.
=560	=560
4b	.
4r	.
2r	.
=561	=561
1r	.
=562	=562
8EL	.
8G#	.
8B	.
8e	.
(8g#L	.
8e)	.
8g#	.
8e	.
=563	=563
[1b	.
=564	=564
4b	.
4r	.
2r	.
=565	=565
1r	.
=566	=566
4r	.
(8B	.
8A#	.
8BL	.
8A#	.
8B	.
8A#)	.
=567	=567
[1B	.
=568	=568
4B	.
(8B	.
8A#	.
8BL	.
8A#	.
8B	.
8A#)	.
=569	=569
[1B	.
=570	=570
!LO:TX:t=cresc.	!
2B	<
[2E	.
=571	=571
(2E	.
2G#)	.
=572	=572
[1B	p
=573	=573
[2B	.
8BL	.
=574:|!	=574:|!
[1B	p
=575	=575
[2B	>
8BL	]
=||	=||
8c#L	f
8d	.
8c#	.
=576	=576
(1A	.
=577	=577
2.d)	.
4C#	.
=578	=578
(4.G#	sf
8C#)	.
(4.F#	.
8C#)	.
=579	=579
(4.G#	sf
8C#)	.
(4.F#	.
8C#)	.
=580	=580
4G#	.
4e	.
4f#	.
4f#	.
=581	=581
[1e	p
=582	=582
!LO:TX:t=cresc.	!
(1e	<
=583	=583
8dL)	f
8A	.
8B	.
8A	.
[2F#	.
=584	=584
4F#	.
(2d	.
4f#)	.
=585	=585
(4.e	sf
8A)	.
(4.d	.
8A)	.
=586	=586
(4.e	sf
8A)	.
(4.d	.
8A)	.
=587	=587
(4.e	sf
8A)	.
4d	.
(4dd	.
=588	=588
2ee	.
2dd	.
=589	=589
2cc#	.
2b	.
=590	=590
2a	.
2g	.
=591	=591
4f)	.
4r	.
(2a	.
=592	=592
2g	.
2f	.
=593	=593
2e	.
[2d	.
=594	=594
2d	.
2c#	.
=595	=595
4d)	.
4r	.
8r	.
8c	ff
8B	.
8c	.
=596	=596
(8cL	.
8B-)	.
8A	.
8B-	.
(8B-L	.
8A)	.
8G#	.
8A	.
=597	=597
4G	.
4r	.
8r	.
8f	.
8e	.
8f	.
=598	=598
(8fL	.
8e)	.
8d#	.
8e	.
(8eL	.
8d)	.
8c#	.
8d	.
=599	=599
4c	.
4r	.
8r	.
8B-	.
8A	.
8B-	.
=600	=600
(8B-L	.
8A)	.
8G#	.
8A	.
(8AL	.
8G)	.
8F#	.
8G	.
=601	=601
4F	.
4r	.
8r	.
8g	.
8f#	.
8g	.
=602	=602
(8gL	.
8f)	.
8e	.
8f	.
(8fL	.
8e)	.
8d#	.
8e	.
=603	=603
4d	.
4r	.
8r	.
8G	.
8A	.
8G	.
=604	=604
[2g	sf
8gL	.
8G	.
8A	.
8G	.
=605	=605
8gL	.
8G	.
8g	.
8G	.
8gL	.
8G	.
8g	.
8G	.
=606	=606
8gL	.
8G	.
8g	.
8G	.
8gL	.
8G	.
8g	.
8G	.
=607	=607
8gJ	.
8BL	.
8c	.
8B	.
[2d	sf
=608	=608
8dJ	.
8cL	.
8d	.
8c	.
[2e	sf
=609	=609
8eJ	.
8dL	.
8e	.
8d	.
4f	.
4e	.
=610	=610
4d#	.
4d	.
4c#	.
4c	.
=611	=611
4B	.
4a	ff
4g	.
4a	.
=612	=612
4g	.
4r	.
2r	.
=613	=613
(1G	p
=614	=614
1F	.
=615	=615
1G	.
=616	=616
4G)	.
4r	.
2r	.
=617	=617
!LO:TX:t=pizz.	!
4c	pp
4r	.
4a	.
4r	.
=618	=618
4f	.
4r	.
4d	.
4r	.
=619	=619
4B	.
4r	.
4G	.
4r	.
=620	=620
4c	.
4r	.
4E	.
4r	.
=621	=621
4A	.
4r	.
4f	.
4r	.
=622	=622
4d	.
4r	.
4B	.
4r	.
=623	=623
4G#	.
4r	.
4E	.
4r	.
=624	=624
4A	.
4r	.
4c	.
4r	.
=625	=625
4e	.
4r	.
2r	.
=626	=626
!LO:TX:t=arco	!
8r	.
(8A	.
8B	.
8A)	.
[2a	.
=627	=627
8a	.
(8a	.
8b	.
8a)	.
[2A	.
=628	=628
(4A	.
4G#)	.
4r	.
(4g#	.
=629	=629
!LO:TX:t=cresc.	!
4g	<
4a	.
4d	.
4f#	.
=630	=630
4f	.
4g	.
4c	.
4e)	.
=631	=631
4f	.
4F	.
4e	.
4E	.
=632	=632
4d	.
4D	.
4d	.
4c	.
=633	=633
4B	[
4r	.
2r	.
=634	=634
(1d	p
=635	=635
1c	.
=636	=636
4A)	.
4A	.
4A	.
4A	.
=637	=637
4G#	.
4E	.
4E	.
4E	.
=638	=638
4E	.
4E	.
4E	.
4E	.
=639	=639
4E	.
4E	.
4E	.
4E	.
=640	=640
4E	.
4E	.
4E	.
4E	.
=641	=641
4E	.
4r	.
4r	.
4g#	.
=642	=642
4a	.
4a	.
4a	.
4a	.
=643	=643
4g#	.
4r	.
4r	.
4G#	.
=644	=644
4A	.
4A	.
4A	.
4A	.
=645	=645
!LO:TX:t=cresc.	!
1G#	<
=646	=646
1B	.
=647	=647
[1E [1d	p
=648	=648
[2E [2d	.
8EJ 8d	.
8eL	p
8f#	.
8e	.
=649	=649
[1c#	.
=650	=650
2c#	.
(4e	.
4c#)	.
=651	=651
(4.B	.
8d)	.
(4.A	.
8c#)	.
=652	=652
(4.B	.
8d)	.
(4.A	.
8c#)	.
=653	=653
4B	.
4B	.
4B	.
4B	.
=654	=654
[2B	.
8BL	.
8r	.
4r	.
=655	=655
2r	.
8r	.
8B	.
8A#	.
8B	.
=656	=656
(2E	.
4G#	.
4B)	.
=657	=657
(4.A	.
8E)	.
(4.B	.
8E)	.
=658	=658
(4.A	.
8E)	.
(4.G#	.
8E)	.
=659	=659
(4.A	.
8E)	.
(4.B	.
8E)	.
=660	=660
8EJ	.
8eL	.
8f#	.
8e	.
2ee	.
=661	=661
1r	.
=662	=662
1r	.
=663	=663
1r	.
=664	=664
(2.A	.
4c#	.
=665	=665
4d	.
4c#	.
4e	.
4d)	.
=666	=666
(2.c#	.
4d#	.
=667	=667
4e	.
4d#	.
4f#	.
4e)	.
=668	=668
8dL	.
!LO:TX:t=cresc.	!
8D	<
8E	.
8D	.
[2d	.
=669	=669
[1d	.
=670	=670
8dL	.
8D	.
8E	.
8D	.
[2d	.
=671	=671
[1d	.
=672	=672
4d	[
4r	.
8r	.
8dd	p
8ee	.
8dd	.
=673	=673
4cc#	.
4r	.
2r	.
=674	=674
2r	.
8r	.
8b	.
8cc#	.
8b	.
=675	=675
4a	.
4r	.
2r	.
=676	=676
2r	.
8r	.
8g#	.
8a	.
8g#	.
=677	=677
4f#	.
4r	.
2r	.
=678	=678
1r	.
=679	=679
1r	.
=680	=680
4r	.
(2e	.
8f#	.
8g#)	.
=681	=681
4a	.
4b	.
4cc	.
4a	.
=682	=682
4ee	.
4r	.
2r	.
=683	=683
1r	.
=684	=684
4r	.
!LO:TX:t=cresc.	!
(2e	<
8f#	.
8g#)	.
=685	=685
4a	.
4b	.
4cc	.
4a	.
=686	=686
4ee	f
4a	.
4ee	.
4a	.
=687	=687
4ee	.
4r	.
2r	.
=688	=688
(1E	pp
=689	=689
1D	.
=690	=690
1E	.
=691	=691
[1G)	.
=692	=692
!LO:TX:t=cresc.	!
(4G	<
4F#)	.
[2F#	.
=693	=693
(2F#	.
2E)	.
=694	=694
2F#	p
2F#	.
=695	=695
4B	.
4r	.
2r	.
=696	=696
(4a	.
4g#	.
4f#	.
4e	.
=697	=697
4d	.
4c#	.
4B	.
4A)	.
=698	=698
(1G#	.
=699	=699
1c#)	.
=700	=700
4F#	.
!LO:TX:t=cresc.	!
2f#	<
4f	.
=701	=701
2.e	.
4e	.
=702	=702
4d	p
(4d	.
4c#	.
4B	.
=703	=703
4A)	.
4r	.
(4c#	.
4B	.
=704	=704
4A	.
4G#)	.
(4d	.
4c#	.
=705	=705
4B	.
4A)	.
(4c#	.
4B	.
=706	=706
4A	.
4G#)	.
(4d	.
4c#	.
=707	=707
4B	.
4A)	.
(4e	.
4d	.
=708	=708
4c#	.
4B)	.
!LO:TX:t=cresc.	!
(4g	<
4f#	.
=709	=709
4e	.
4d	.
4c#)	.
(4A	.
=710	=710
4B	.
4A	.
4e)	.
4e	[
=711	=711
4a	.
4g#	sf
4f#	.
4e	sf
=712	=712
4d	.
4c#	sf
4B	.
4A	sf
=713	=713
(1B	sf
=714	=714
4A)	.
4r	.
2r	.
=715	=715
4a	p
4g#	sf
2r	.
=716	=716
2r	.
4e	p
4e	sf
=717	=717
4e#	f
4r	.
2r	.
=718	=718
1r	.
=719	=719
(4dd	pp
4b	.
4a	.
4cc#	.
=720	=720
4cc	.
4a	.
4g	.
4b	.
=721	=721
4b-	.
4g	.
4f#)	.
[4a	.
=722	=722
4a	.
(4e	.
4g#	.
4e)	.
=723	=723
4e	p
4r	.
2r	.
=724	=724
4r	.
4e	.
4e	.
4e	.
=725	=725
4d	.
4r	.
2r	.
=726	=726
4r	.
4B	.
4B	.
4B	.
=727	=727
4A	.
4r	.
2r	.
=728	=728
4r	.
4e	.
4e	.
4e	.
=729	=729
4d	.
4r	.
2r	.
=730	=730
4r	.
4B	.
4B	.
4B	.
=731	=731
8AL	.
8c#	.
8e	.
8a	.
(8cc#L	.
8a)	.
8cc#	.
8a	.
=732	=732
[1ee	.
=733	=733
4ee	.
4r	.
2r	.
=734	=734
1r	.
=735	=735
8AL	.
8c#	.
8e	.
8a	.
(8cc#L	.
8a)	.
8cc#	.
8a	.
=736	=736
[1ee	.
=737	=737
4ee	.
4r	.
2r	.
=738	=738
1r	.
=739	=739
4r	.
(8e	.
8d#	.
8eL	.
8d#	.
8e	.
8d#)	.
=740	=740
[1e	.
=741	=741
4e	.
(8E	.
8D#	.
8EL	.
8D#	.
8E	.
8D#)	.
=742	=742
[1E	.
=743	=743
!LO:TX:t=cresc.	!
[1E	<
=744	=744
[2E	.
8EL	.
8e	.
8f#	.
8e	.
=745	=745
[1c#	f
=746	=746
2c#	.
(4e	.
4c#)	.
=747	=747
(4.B	sf
8d)	.
(4.A	.
8c#)	.
=748	=748
(4.B	sf
8d)	.
(4.A	.
8c#)	.
=749	=749
4B	sf
4B	.
4B	.
4B	.
=750	=750
[2B	.
8BL	.
8r	.
4r	.
=751	=751
2r	.
(4.e	p
8A)	.
=752	=752
4d	.
4r	.
2r	.
=753	=753
2r	.
(4.e	.
8A)	.
=754	=754
4d	.
4r	.
2r	.
=755	=755
2r	.
(4.B	.
8E)	.
=756	=756
4A	.
4r	.
2r	.
=757	=757
2r	.
(4.B	.
8E)	.
=758	=758
4E	.
4r	.
8r	.
8C#	.
8E	.
8A	.
=759	=759
4C#	.
4r	.
8r	.
8C#	.
8E	.
8A	.
=760	=760
4D	.
4r	.
8r	.
8D	.
8F#	.
8B	.
=761	=761
4E	.
4r	.
8r	.
8E	.
8B	.
8B	.
=762	=762
8AL	f
8e	.
8c#	.
8A	.
4E	sf
4r	.
=763	=763
8r	.
8e	.
8c#	.
8A	.
4E	sf
4r	.
=764	=764
8r	.
8f#	.
8d	.
8B	.
4F#	sf
4r	.
=765	=765
8r	.
8G#	.
8B	.
8c#	.
8dL	.
8E	.
8d	.
8d	.
=766	=766
4c#	.
4r	.
2r	.
=767	=767
(1G#	p
=768	=768
1A	.
=769	=769
1d)	.
=770	=770
4c#	.
4r	.
2r	.
=771	=771
([1e	p
=772	=772
1e	.
=773	=773
1d	.
=774	=774
4c#)	.
4r	.
2r	.
=775	=775
1r	.
=776	=776
!LO:TX:t=cresc.	!
[1c#	<
=777	=777
1c#	.
=778	=778
[1c#	f
=779	=779
1c#	.
=780	=780
[1A	p
=781	=781
[2A	.
8AL	.
==	==
*-	*-
